src/22/actions/edit-table-insert-row-above.svg

<svg xmlns="http://www.w3.org/2000/svg" viewBox="0 0 22 22"><path d="M3 3v16h16V9h-1v4h-2V9h-1v4h-2V3h-1v10h-2V9H9v4H7V9H6v4H4V3H3zm13.5 0L14 8h5l-2.5-5zM4 14h2v4H4v-4zm3 0h2v4H7v-4zm3 0h2v4h-2v-4zm3 0h2v4h-2v-4zm3 0h2v4h-2v-4z" fill="currentColor" color="#5d656b"/><path d="M3 3v6h10V3H3zm1 1h.293l4 4H4V4zm1.707 0h2.586L12 7.707V8H9.707l-4-4zm4 0H12v2.293L9.707 4z" fill="currentColor" color="#3daee9"/></svg>

<svg xmlns="http://www.w3.org/2000/svg" viewBox="0 0 22 22">
  <defs id="defs3051">
    <style type="text/css" id="current-color-scheme">
      .ColorScheme-Text {
        color:#5d656b;
      }
      .ColorScheme-Highlight {
        color:#3daee9;
      }
      </style>
  </defs>
 <path 
     style="fill:currentColor;fill-opacity:1;stroke:none" 
     d="M 3 3 L 3 9 L 3 19 L 4 19 L 19 19 L 19 18 L 19 9 L 18 9 L 18 13 L 16 13 L 16 9 L 15 9 L 15 13 L 13 13 L 13 9 L 13 3 L 12 3 L 12 9 L 12 13 L 10 13 L 10 9 L 9 9 L 9 13 L 7 13 L 7 9 L 6 9 L 6 13 L 5 13 L 4 13 L 4 9 L 4 3 L 3 3 z M 16.5 3 L 14 8 L 19 8 L 16.5 3 z M 4 14 L 5 14 L 6 14 L 6 15 L 6 18 L 4 18 L 4 14 z M 7 14 L 9 14 L 9 18 L 7 18 L 7 15 L 7 14 z M 10 14 L 12 14 L 12 18 L 10 18 L 10 14 z M 13 14 L 15 14 L 15 15 L 15 18 L 13 18 L 13 14 z M 16 14 L 17.099609 14 L 18 14 L 18 18 L 16 18 L 16 15 L 16 14 z "
     class="ColorScheme-Text"
     />
 <path 
     style="fill:currentColor;fill-opacity:1;stroke:none" 
     d="M 3 3 L 3 9 L 4 9 L 9.2929688 9 L 12 9 L 13 9 L 13 3 L 12 3 L 4 3 L 3 3 z M 4 4 L 4.2929688 4 L 8.2929688 8 L 4 8 L 4 4 z M 5.7070312 4 L 8.2929688 4 L 12 7.7070312 L 12 8 L 9.7070312 8 L 5.7070312 4 z M 9.7070312 4 L 12 4 L 12 6.2929688 L 9.7070312 4 z "
     class="ColorScheme-Highlight"
     />
</svg>
